src/icons/svg/apple.svg

<svg width="20" height="20" viewBox="0 0 20 20" fill="none" xmlns="http://www.w3.org/2000/svg">
<g clip-path="url(#clip0_1861_9111)">
<path d="M13.2715 1C13.3111 1 13.3506 1 13.3924 1C13.4895 2.19888 13.0319 3.09467 12.4757 3.74338C11.93 4.38761 11.1828 5.01243 9.9742 4.91762C9.89358 3.73592 10.3519 2.90656 10.9073 2.25934C11.4224 1.65617 12.3667 1.11944 13.2715 1Z" fill="#19191C"/>
<path d="M16.9301 13.4785C16.9301 13.4904 16.9301 13.5009 16.9301 13.5121C16.5904 14.5407 16.106 15.4223 15.5147 16.2405C14.975 16.9833 14.3136 17.9828 13.1327 17.9828C12.1122 17.9828 11.4344 17.3267 10.3885 17.3087C9.28223 17.2908 8.67383 17.8574 7.66233 18C7.54662 18 7.43091 18 7.31744 18C6.57468 17.8925 5.97524 17.3043 5.53854 16.7743C4.25083 15.2081 3.25575 13.1851 3.07062 10.5962C3.07062 10.3424 3.07062 10.0894 3.07062 9.83555C3.149 7.98275 4.04928 6.47631 5.24591 5.74624C5.87745 5.35806 6.74563 5.02736 7.71234 5.17517C8.12665 5.23937 8.54991 5.3812 8.92092 5.52154C9.27252 5.65666 9.71221 5.89628 10.1288 5.88359C10.4109 5.87538 10.6916 5.72832 10.976 5.62456C11.8091 5.32372 12.6258 4.97884 13.7022 5.14083C14.9959 5.33641 15.9141 5.91121 16.4815 6.79805C15.3871 7.49454 14.5219 8.54411 14.6697 10.3365C14.8011 11.9646 15.7476 12.9171 16.9301 13.4785Z" fill="#19191C"/>
</g>
<defs>
<clipPath id="clip0_1861_9111">
<rect width="17" height="17" fill="white" transform="translate(1.5 1)"/>
</clipPath>
</defs>
</svg>

<svg xmlns="http://www.w3.org/2000/svg" width="20" height="20" fill="none"><g fill="#19191C" clip-path="url(#a)"><path d="M13.272 1h.12c.098 1.199-.36 2.095-.916 2.743-.546.645-1.293 1.27-2.502 1.175-.08-1.182.378-2.011.933-2.659.515-.603 1.46-1.14 2.364-1.259m3.659 12.479v.033a9.9 9.9 0 0 1-1.415 2.729c-.54.742-1.201 1.742-2.382 1.742-1.02 0-1.699-.656-2.744-.674-1.107-.018-1.715.548-2.727.691h-.345c-.742-.108-1.342-.696-1.778-1.226-1.288-1.566-2.283-3.589-2.468-6.178v-.76c.078-1.853.978-3.36 2.175-4.09.631-.388 1.5-.719 2.466-.57.415.063.838.205 1.209.346.352.135.791.374 1.208.362.282-.009.563-.156.847-.26.833-.3 1.65-.645 2.726-.483 1.294.195 2.212.77 2.78 1.657-1.095.697-1.96 1.746-1.812 3.538.131 1.629 1.078 2.581 2.26 3.143"/></g><defs><clipPath id="a"><path fill="#fff" d="M1.5 1h17v17h-17z"/></clipPath></defs></svg>
